X: 23
T: Swallow's Tail, The
Z: Aaron Bergen
S: https://thesession.org/tunes/105#setting48791
R: reel
M: 4/4
L: 1/8
K: Ador
|:"Am"eABA eABA|Bdef gdBA|"Em"G2BG dGBG|Bdef ggfg|
"Am"eABA eABA|Bdef g2fg|"Em"afge dBGB|"Am"A2AG A4:|
|:"Am"eaaa gbag|edef gdBA|"Em"G2BG dGBG|Bdef ggfg|
"Am"eaaa gbag|edef g2fg|"Em"afge dBGB|"Am"A2AG A4:|

